images/logo.svg

<svg xmlns="http://www.w3.org/2000/svg" width="170.1" height="108.1" viewBox="0 0 170.1 108.1"><style type="text/css">.st0{fill:#FFFFFF;}</style><path class="st0" d="M0 0h21l31.1 91.4 30.8-91.4h20.8v108.1h-14v-63.8c0-2.2 0-5.9.1-11s.1-10.6.1-16.4l-30.9 91.2h-14.3l-31.2-91.2v3.3c0 2.6.1 6.7.2 12.1.1 5.4.2 9.4.2 12v63.8h-13.9v-108.1zM89.8 0h48.4c9.6 0 17.3 2.7 23.2 8.1 5.9 5.4 8.8 13 8.8 22.8 0 8.4-2.6 15.8-7.9 22-5.2 6.3-13.3 9.4-24.1 9.4h-33.8v45.7h-14.6v-108zm56.8 14.9c-3.2-1.5-7.6-2.3-13.2-2.3h-28.9v37.4h28.9c6.5 0 11.8-1.4 15.9-4.2 4.1-2.8 6.1-7.7 6.1-14.8-.1-7.9-3-13.3-8.8-16.1z"/><circle class="st0" cx="152.5" cy="100.7" r="7.4"/><circle class="st0" cx="122.2" cy="100.7" r="7.4"/></svg>

<?xml version="1.0" encoding="utf-8"?>
<!-- Generator: Adobe Illustrator 20.1.0, SVG Export Plug-In . SVG Version: 6.00 Build 0)  -->
<svg version="1.1" id="Layer_1" xmlns="http://www.w3.org/2000/svg" xmlns:xlink="http://www.w3.org/1999/xlink" x="0px" y="0px"
	 width="170.1px" height="108.1px" viewBox="0 0 170.1 108.1" style="enable-background:new 0 0 170.1 108.1;" xml:space="preserve"
	>
<style type="text/css">
	.st0{fill:#FFFFFF;}
</style>
<g>
	<g>
		<path class="st0" d="M0,0h21l31.1,91.4L82.9,0h20.8v108.1h-14V44.3c0-2.2,0-5.9,0.1-11c0.1-5.1,0.1-10.6,0.1-16.4l-30.9,91.2H44.7
			L13.5,16.9v3.3c0,2.6,0.1,6.7,0.2,12.1c0.1,5.4,0.2,9.4,0.2,12v63.8H0V0z"/>
		<path class="st0" d="M89.8,0h48.4c9.6,0,17.3,2.7,23.2,8.1c5.9,5.4,8.8,13,8.8,22.8c0,8.4-2.6,15.8-7.9,22
			c-5.2,6.3-13.3,9.4-24.1,9.4h-33.8v45.7H89.8V0z M146.6,14.9c-3.2-1.5-7.6-2.3-13.2-2.3h-28.9V50h28.9c6.5,0,11.8-1.4,15.9-4.2
			c4.1-2.8,6.1-7.7,6.1-14.8C155.3,23.1,152.4,17.7,146.6,14.9z"/>
	</g>
	<circle class="st0" cx="152.5" cy="100.7" r="7.4"/>
	<circle class="st0" cx="122.2" cy="100.7" r="7.4"/>
</g>
</svg>
